X: 1
T: Bagpipe March
M: 4/4
L: 1/8
R: barndance
K: Dmix
a3 c' b/c'/b gb | a2 d2 d3 b | agfe defg | a4- agfg |
a/b/a- ac' b/c'/b gb | a2 d2 d2 a2 | gfed cdef | g4 f2 g2 |
a3 c' b/c'/b gb | a2 d2 d3 b | agfe defg | a4- agfg |
a2 c'2 b/c'/b gb | a2 f2 a/b/a- a2 | gfed cdef | g4 f2 e/f/e ||
d2 d'2 a2 d'2 | a/b/a d2 d4 | d2 d'2 defg | a/b/a ab agfe |
d2 d'2 a2 d'2 | a2 dd a4 | gfed cdef | g4 f2 e/f/e |
d2 d'2 aa d'2 | aa d2 d4 | d2 d'2 defg | a6 bc' |
d'c'bd' c'bac' | b/c'/b g2 a/b/a- a2 | gfed cdef | g4 f2 e/f/e ||
d3 e f2 d2 | a2 d2 f2 d/e/d | a3 b afdf | a3 b agfe |
d3 e f2 d/e/d | a2 d2 f2 d2 | g3 g gece | g3 g gece |
d3 e f2 d2 | a2 d2 f2 d/e/d | a3 b afdf | a4 a2 bc' |
d'c'bd' c'bac' | b/c'/b g2 a/b/a- a2 | gfed cdef | g4 f2 e/f/e ||
d2 d'2 a2 d'2 | a2 d2 d4 | d2 d'2 defg | a3 b agfe |
d2 d'2 a2 d'2 | a2 d2 a4 | gfed cdef | g4 f2 e/f/e | 
d2 d'2 aa d'2 | aa d2 d4 | d2 d'2 defg | a6 bc' |
d'c'bd' c'bac' | b/c'/b g2 a/b/a- a2 | gfed cdef | g4 d'4 |]
